icons/nixos/nixos-plain-wordmark.svg

<svg viewBox="0 0 128 128" xmlns="http://www.w3.org/2000/svg">
<path fill-rule="evenodd" clip-rule="evenodd" d="M18.0963 57.0819L8.11889 74.3613L5.78942 70.4126L8.47839 65.7848L3.13813 65.7708L2 63.7976L3.16221 61.7795L10.7635 61.8035L13.4954 57.0939L18.0963 57.0819Z" fill="#5277C3"/>
<path fill-rule="evenodd" clip-rule="evenodd" d="M18.8617 70.8948L38.8149 70.8958L36.5599 74.8876L31.2076 74.8727L33.8656 79.5046L32.7259 81.4768L30.397 81.4794L26.6171 74.8845L21.1726 74.8734L18.8617 70.8948Z" fill="#5277C3"/>
<path fill-rule="evenodd" clip-rule="evenodd" d="M30.4752 63.3234L20.4994 46.043L25.0839 46L27.7472 50.6426L30.4295 46.0248L32.7073 46.0257L33.874 48.0413L30.0525 54.6122L32.7653 59.3329L30.4752 63.3234Z" fill="#5277C3"/>
<path fill-rule="evenodd" clip-rule="evenodd" d="M14.4957 64.1999L24.4714 81.4803L19.8869 81.5233L17.2237 76.8807L14.5414 81.4985L12.2635 81.4976L11.0969 79.482L14.9183 72.9111L12.2056 68.1904L14.4957 64.1999Z" fill="#5277C3"/>
<path fill-rule="evenodd" clip-rule="evenodd" d="M26.0826 56.5848L6.12944 56.5838L8.38442 52.5921L13.7367 52.6069L11.0787 47.9751L12.2184 46.0029L14.5473 46.0003L18.3271 52.5952L23.7717 52.6063L26.0826 56.5848Z" fill="#5277C3"/>
<path fill-rule="evenodd" clip-rule="evenodd" d="M26.861 70.4377L36.8384 53.1583L39.1679 57.1071L36.4789 61.7348L41.8192 61.7488L42.9573 63.722L41.7951 65.7401L34.1938 65.7161L31.4619 70.4258L26.861 70.4377Z" fill="#5277C3"/>
<path d="M68.3553 53.0267H65.8394V64.4447C65.8394 66.0574 65.904 68.6055 66.0007 71.4439H65.904C64.646 69.0893 63.2268 66.8315 62.227 65.2833L54.3247 53.0267H50.8735V74.8951H53.3893V63.4771C53.3893 61.8644 53.3248 58.8324 53.228 56.0263H53.3248C55.1955 59.284 56.2922 61.0903 57.3243 62.6385L65.2266 74.8951H68.3553V53.0267Z" fill="#5277C3"/>
<path d="M73.145 74.8951H75.8544V59.284H73.145V74.8951ZM74.4997 56.994C75.4351 56.994 76.177 56.2521 76.177 55.3167C76.177 54.3814 75.4351 53.6395 74.4997 53.6395C73.5643 53.6395 72.8225 54.3814 72.8225 55.3167C72.8225 56.2521 73.5643 56.994 74.4997 56.994Z" fill="#5277C3"/>
<path d="M92.734 59.284H89.6376L85.8316 65.0253H85.7348L82.0578 59.284H78.7034L84.2834 66.896V66.9928L78.5098 74.8951H81.6063L85.6703 68.7023H85.7671L89.8311 74.8951H93.1855L87.283 66.8638V66.767L92.734 59.284Z" fill="#5277C3"/>
<path d="M103.214 53.4161C98.0801 53.4161 93.8591 57.5501 93.8591 64.4295C93.8591 71.3089 98.0801 75.4429 103.214 75.4429C108.348 75.4429 112.569 71.3089 112.569 64.4295C112.569 57.5501 108.348 53.4161 103.214 53.4161ZM103.214 55.562C107.036 55.562 109.945 58.7177 109.945 64.4295C109.945 70.1413 107.036 73.297 103.214 73.297C99.3921 73.297 96.483 70.1413 96.483 64.4295C96.483 58.7177 99.3921 55.562 103.214 55.562Z" fill="#5277C3"/>
<path d="M113.632 59.0051C113.632 62.0345 115.209 63.6755 118.87 65.1587C121.679 66.2947 122.815 67.3045 122.815 69.3873C122.815 71.9119 120.763 73.1741 118.049 73.1741C116.629 73.1741 115.02 72.9532 113.253 72.3537L112.969 74.5311C114.515 75.0991 116.219 75.32 117.923 75.32C122.152 75.32 125.686 73.1741 125.686 68.8508C125.686 65.8529 123.856 64.4013 120.164 62.9181C117.702 61.9399 116.503 60.8985 116.503 58.7211C116.503 56.6067 118.333 55.4391 120.637 55.4391C121.994 55.4391 123.477 55.7863 124.519 56.1965L124.803 54.0506C123.604 53.5457 122.12 53.2933 120.479 53.2933C116.598 53.2933 113.632 55.5338 113.632 59.0051Z" fill="#5277C3"/>
</svg>

<svg xmlns="http://www.w3.org/2000/svg" viewBox="0 0 128 128"><path fill="#5277C3" d="M18.096 57.082 8.12 74.362l-2.33-3.95 2.69-4.627-5.34-.014L2 63.798l1.162-2.019 7.602.024 2.731-4.71 4.601-.011zm.766 13.813h19.953l-2.255 3.993-5.352-.015 2.658 4.632-1.14 1.972-2.329.002-3.78-6.594-5.444-.012-2.311-3.978zm11.613-7.572L20.5 46.043 25.084 46l2.663 4.643 2.683-4.618h2.277l1.167 2.016-3.822 6.571 2.713 4.72-2.29 3.991zm-15.979.877 9.975 17.28-4.584.043-2.663-4.642-2.683 4.618-2.277-.001-1.167-2.016 3.821-6.57-2.712-4.722 2.29-3.99zm11.587-7.615-19.954-.001 2.255-3.992 5.353.015-2.658-4.632 1.14-1.972L14.546 46l3.78 6.595 5.445.011 2.31 3.979zm.778 13.853 9.977-17.28 2.33 3.95-2.69 4.627 5.341.014 1.138 1.973-1.162 2.018-7.601-.024-2.732 4.71-4.601.012z" clip-rule="evenodd" fill-rule="evenodd"></path><path fill="#5277C3" d="M68.355 53.027H65.84v11.418c0 1.612.065 4.16.162 6.999h-.097c-1.258-2.355-2.677-4.612-3.677-6.16l-7.902-12.257h-3.452v21.868h2.516V63.477c0-1.613-.064-4.645-.161-7.45h.097c1.87 3.257 2.967 5.063 4 6.611l7.902 12.257h3.128V53.027zm4.79 21.868h2.71V59.284h-2.71v15.611zM74.5 56.994c.935 0 1.677-.742 1.677-1.677 0-.936-.742-1.678-1.677-1.678-.936 0-1.677.742-1.677 1.678 0 .935.741 1.677 1.677 1.677zm18.234 2.29h-3.096l-3.806 5.741h-.097l-3.677-5.741h-3.355l5.58 7.612v.097l-5.773 7.902h3.096l4.064-6.193h.097l4.064 6.193h3.355l-5.903-8.031v-.097l5.451-7.483zm10.48-5.868c-5.134 0-9.355 4.134-9.355 11.014 0 6.879 4.221 11.013 9.355 11.013s9.355-4.134 9.355-11.013c0-6.88-4.221-11.014-9.355-11.014zm0 2.146c3.822 0 6.731 3.156 6.731 8.868 0 5.711-2.909 8.867-6.731 8.867s-6.731-3.156-6.731-8.867c0-5.712 2.91-8.868 6.731-8.868zm10.418 3.443c0 3.03 1.577 4.67 5.238 6.154 2.809 1.136 3.945 2.145 3.945 4.228 0 2.525-2.052 3.787-4.766 3.787-1.42 0-3.029-.22-4.796-.82l-.284 2.177c1.546.568 3.25.789 4.954.789 4.229 0 7.763-2.146 7.763-6.47 0-2.997-1.83-4.449-5.522-5.932-2.462-.978-3.661-2.02-3.661-4.197 0-2.114 1.83-3.282 4.134-3.282 1.357 0 2.84.347 3.882.758l.284-2.146c-1.199-.505-2.683-.758-4.324-.758-3.881 0-6.847 2.24-6.847 5.712z"></path></svg>
